X:489
T:Bagpipers
L:1/8
M:2/4
K:D
A | B/2c/2d dc | B3 A | B>A Bc | d/2c/2d/2e/2 dA | 
B/2c/2d dc | B3 A | B>A Bc | d2 d :| 
e | f/2g/2a af | fe e2 | f/2e/2f/2g/2 aa | f/2e/2f/2g/2 ad/2c/2 | 
B/2c/2d dc | B3 A | B>A Bc | d2 d :| 

